X:1
T:Signal Lights
T:Signal Lights
T:Isaac Hickman Meredith
T:Josie Wallace, 1911
T:Public Domain Courtesy of the Cyber Hymnal™
T:Public Domain Courtesy of the Cyber Hymnal™
C:Isaac Hickman Meredith
Z:Public Domain
Z:Courtesy of the Cyber Hymnal™
%%score ( 1 2 ) ( 3 4 )
L:1/8
Q:1/4=88
M:6/8
K:G
V:1 treble 
V:2 treble 
V:3 bass 
V:4 bass 
V:1
 DG[B,DA] BA[B,DG] | [CE]3 [CEA]3 | [CG]2 [CF] [CA]2 [CF] | ([^A,E]3 [B,D]2) z | %4
w: 1.~Out on life’s wa- ters we’re|sail- ing,|Out a- cross the|sea, *|
w: 2.~“Pa- tience” out yon- der is|beam- ing,|“Hope” burns clear and|strong, *|
w: 3.~“Truth” in the har- bor is|glow- ing,|Like a ho- ly|star, *|
w: 4.~Ne- ver can e- vil be-|tide us,|Thro’ the day or|nights, *|
 DG[B,DA] BA[B,DG] | [DF]3 [DA]3 | [DB]2 [GB] [G^c]2 [GA] | [Fd]3- [Fd]2 z || %8
w: But with a cour- age un-|fail- ing,|Sig- nal lights have|we. *|
w: “Faith” o’er the wa- ters is|beam- ing,|Though the way be|long. *|
w: “Love” its bright sig- nal is|show- ing,|Though the shore be|far. *|
w: These are the bea- cons that|guide us,|Pre- cious sig- nal|lights. *|
"^Refrain" (z [DG][DG]) (z [GB][GB]) | z [^CG][CG] (z [A,C][A,C]) | z [CF][CFB] (z [CF])[CFB] | %11
w: |||
w: |||
w: ||* Sig- * nals,|
w: |||
 z [B,D][B,D] (z [G,B,][G,B,]) | z [B,D][B,DA] (z [B,D])[DE] | z [CD][CD] z [CD][CD] | %14
w: |||
w: |||
w: |* sig- * nals,||
w: |||
 z [CD][CDB] (z [CF])D | (z [DG][DG] z [DFc][DFc]) | z [DG][DG] (z [DG][DG]) | %17
w: |||
w: |||
w: * bright * and|||
w: |||
 z [^CG][CG] (z [A,C][A,C]) | z [CF][CFB] (z [CF])[CFB] | z [B,D][B,D] (z [G,B,][G,B,]) | %20
w: |||
w: |||
w: |* shin- * ing||
w: |||
 E2 [^DF] [EG]2 [FA] | [GB]2 [Ge] (dB)G | [GB]3 A3 | [DG]3- [DG]2 |] %24
w: ||||
w: ||||
w: * sig- nals, Set|for you and * me,|har- bor|lights *|
w: ||||
V:2
 B,2 [B,D]2 x2 | x6 | x6 | x6 | B,2 [B,D]2 x2 | x6 | x6 | x6 || B3 d3 | B3 E3 | A2 d2 x2 | G3 D3 | %12
 G2 G2 x2 | F3- F3 | (A2 A2 D) x | d3- d2 x | B3 d3 | B3 E3 | A2 d2 x2 | G3 D3 | E2 x4 | x3 G2 G | %22
 x3 (F2 D) | x5 |] %24
V:3
 A,,2 D, G,2 D, | C,2 E, A,2 E, | F,,2 D, F,2 D, | (G,,2 ^C, D,2 B,,) | G,,2 D, G,2 D, | %5
 A,,2 D, F,2 D, | G,2 E, A,2 [A,^C] | ([D,-D]3 [D,C]2) z || B,3 D3 | B,3 E,3 | D,3 D,3 | %11
 G,,3 G,,3 | B,,3 B,,2 _B,, | A,,3 D,,3 | F,,3 D,,2 C, | B,,3 A,,3 | G,,3 B,,3 | E,,3 A,,3 | %18
 D,,3 D,3 | G,,3 G,,3 | [C,G,]2 [B,,B,] [E,B,]2 [D,D] | [G,D]2 C D2 [E,^C] | [D,D]3 [D,C]3 | %23
 [G,B,]3- [G,B,]2 |] %24
V:4
 x6 | x6 | x6 | x6 | x6 | x6 | x6 | x6 || x6 | x6 | x6 | x6 | x6 | x6 | x6 | x6 | x6 | x6 | x6 | %19
 x6 | x6 | x2 ^C (B,G,) x | x6 | x5 |] %24

